images/3234691.svg

<?xml version="1.0" encoding="UTF-8"?>
<svg xmlns="http://www.w3.org/2000/svg" xmlns:xlink="http://www.w3.org/1999/xlink" width="300pt" height="300pt" viewBox="0 0 300 300" version="1.1">
<defs>
<g>
<symbol overflow="visible" id="glyph0-0">
<path style="stroke:none;" d="M 0.453125 1.59375 L 0.453125 -6.34375 L 4.953125 -6.34375 L 4.953125 1.59375 Z M 0.953125 1.09375 L 4.453125 1.09375 L 4.453125 -5.84375 L 0.953125 -5.84375 Z M 0.953125 1.09375 "/>
</symbol>
<symbol overflow="visible" id="glyph0-1">
<path style="stroke:none;" d="M 0.890625 -6.5625 L 2.078125 -6.5625 L 4.984375 -1.078125 L 4.984375 -6.5625 L 5.84375 -6.5625 L 5.84375 0 L 4.65625 0 L 1.75 -5.484375 L 1.75 0 L 0.890625 0 Z M 0.890625 -6.5625 "/>
</symbol>
<symbol overflow="visible" id="glyph0-2">
<path style="stroke:none;" d="M 3.546875 -5.953125 C 2.898438 -5.953125 2.382812 -5.710938 2 -5.234375 C 1.625 -4.753906 1.4375 -4.101562 1.4375 -3.28125 C 1.4375 -2.445312 1.625 -1.789062 2 -1.3125 C 2.382812 -0.832031 2.898438 -0.59375 3.546875 -0.59375 C 4.191406 -0.59375 4.703125 -0.832031 5.078125 -1.3125 C 5.453125 -1.789062 5.640625 -2.445312 5.640625 -3.28125 C 5.640625 -4.101562 5.453125 -4.753906 5.078125 -5.234375 C 4.703125 -5.710938 4.191406 -5.953125 3.546875 -5.953125 Z M 3.546875 -6.6875 C 4.460938 -6.6875 5.195312 -6.375 5.75 -5.75 C 6.300781 -5.132812 6.578125 -4.3125 6.578125 -3.28125 C 6.578125 -2.238281 6.300781 -1.410156 5.75 -0.796875 C 5.195312 -0.179688 4.460938 0.125 3.546875 0.125 C 2.617188 0.125 1.878906 -0.179688 1.328125 -0.796875 C 0.773438 -1.410156 0.5 -2.238281 0.5 -3.28125 C 0.5 -4.3125 0.773438 -5.132812 1.328125 -5.75 C 1.878906 -6.375 2.617188 -6.6875 3.546875 -6.6875 Z M 3.546875 -6.6875 "/>
</symbol>
<symbol overflow="visible" id="glyph0-3">
<path style="stroke:none;" d="M 0.890625 -6.5625 L 4.65625 -6.5625 L 4.65625 -5.8125 L 1.765625 -5.8125 L 1.765625 -3.875 L 4.375 -3.875 L 4.375 -3.140625 L 1.765625 -3.140625 L 1.765625 0 L 0.890625 0 Z M 0.890625 -6.5625 "/>
</symbol>
</g>
</defs>
<g id="surface42477">
<rect x="0" y="0" width="300" height="300" style="fill:rgb(100%,100%,100%);fill-opacity:1;stroke:none;"/>
<path style="fill:none;stroke-width:1.2;stroke-linecap:butt;stroke-linejoin:miter;stroke:rgb(0%,0%,0%);stroke-opacity:1;stroke-miterlimit:10;" d="M 194.683594 186.339844 L 175.390625 185.359375 "/>
<path style="fill:none;stroke-width:1.2;stroke-linecap:butt;stroke-linejoin:miter;stroke:rgb(0%,0%,0%);stroke-opacity:1;stroke-miterlimit:10;" d="M 205.179688 170.121094 L 194.683594 186.339844 "/>
<path style="fill:none;stroke-width:1;stroke-linecap:butt;stroke-linejoin:miter;stroke:rgb(0%,0%,0%);stroke-opacity:1;stroke-miterlimit:10;" d="M 166.597656 168.164062 L 166.597656 168.164062 M 167.476562 171.03125 L 168.40625 170.554688 M 168.359375 173.898438 L 170.214844 172.949219 M 169.238281 176.765625 L 172.023438 175.339844 M 170.121094 179.632812 L 173.835938 177.734375 M 171.003906 182.5 L 175.644531 180.125 M 171.882812 185.367188 L 177.453125 182.519531 M 172.359375 186.910156 L 178.425781 183.808594 "/>
<path style="fill:none;stroke-width:1.2;stroke-linecap:butt;stroke-linejoin:miter;stroke:rgb(0%,0%,0%);stroke-opacity:1;stroke-miterlimit:10;" d="M 166.597656 168.164062 L 154.464844 183.191406 "/>
<path style="fill:none;stroke-width:1.2;stroke-linecap:butt;stroke-linejoin:miter;stroke:rgb(0%,0%,0%);stroke-opacity:1;stroke-miterlimit:10;" d="M 166.597656 168.164062 L 177.089844 151.945312 "/>
<path style="fill:none;stroke-width:1.2;stroke-linecap:butt;stroke-linejoin:miter;stroke:rgb(0%,0%,0%);stroke-opacity:1;stroke-miterlimit:10;" d="M 156.050781 151.980469 L 166.597656 168.164062 "/>
<path style="fill:none;stroke-width:1.2;stroke-linecap:butt;stroke-linejoin:miter;stroke:rgb(0%,0%,0%);stroke-opacity:1;stroke-miterlimit:10;" d="M 154.464844 183.191406 L 136.417969 176.300781 "/>
<path style="fill:none;stroke-width:1.2;stroke-linecap:butt;stroke-linejoin:miter;stroke:rgb(0%,0%,0%);stroke-opacity:1;stroke-miterlimit:10;" d="M 136.417969 176.300781 L 136.910156 166.652344 "/>
<path style="fill:none;stroke-width:1.2;stroke-linecap:butt;stroke-linejoin:miter;stroke:rgb(0%,0%,100%);stroke-opacity:1;stroke-miterlimit:10;" d="M 136.910156 166.652344 L 137.398438 157.007812 "/>
<path style="fill:none;stroke-width:1.2;stroke-linecap:butt;stroke-linejoin:miter;stroke:rgb(0%,0%,100%);stroke-opacity:1;stroke-miterlimit:10;" d="M 137.398438 157.007812 L 146.726562 154.492188 "/>
<path style="fill:none;stroke-width:1.2;stroke-linecap:butt;stroke-linejoin:miter;stroke:rgb(0%,0%,0%);stroke-opacity:1;stroke-miterlimit:10;" d="M 146.726562 154.492188 L 156.050781 151.980469 "/>
<path style="fill:none;stroke-width:1.2;stroke-linecap:butt;stroke-linejoin:miter;stroke:rgb(0%,0%,100%);stroke-opacity:1;stroke-miterlimit:10;" d="M 137.398438 157.007812 L 129.882812 150.941406 "/>
<path style="fill:none;stroke-width:1.2;stroke-linecap:butt;stroke-linejoin:miter;stroke:rgb(0%,0%,0%);stroke-opacity:1;stroke-miterlimit:10;" d="M 129.882812 150.941406 L 122.371094 144.875 "/>
<path style=" stroke:none;fill-rule:nonzero;fill:rgb(100%,100%,100%);fill-opacity:1;" d="M 134.398438 151.507812 L 141.398438 151.507812 L 141.398438 162.507812 L 134.398438 162.507812 Z M 134.398438 151.507812 "/>
<g style="fill:rgb(0%,0%,100%);fill-opacity:1;">
  <use xlink:href="#glyph0-1" x="134.398438" y="160.170898"/>
</g>
<path style="fill:none;stroke-width:1.2;stroke-linecap:butt;stroke-linejoin:miter;stroke:rgb(0%,0%,0%);stroke-opacity:1;stroke-miterlimit:10;" d="M 122.371094 144.875 L 125.359375 125.792969 "/>
<path style="fill:none;stroke-width:1.2;stroke-linecap:butt;stroke-linejoin:miter;stroke:rgb(0%,0%,0%);stroke-opacity:1;stroke-miterlimit:10;" d="M 118.179688 142.261719 L 120.570312 126.996094 "/>
<path style="fill:none;stroke-width:1.2;stroke-linecap:butt;stroke-linejoin:miter;stroke:rgb(0%,0%,0%);stroke-opacity:1;stroke-miterlimit:10;" d="M 104.347656 151.828125 L 122.371094 144.875 "/>
<path style="fill:none;stroke-width:1.2;stroke-linecap:butt;stroke-linejoin:miter;stroke:rgb(0%,0%,0%);stroke-opacity:1;stroke-miterlimit:10;" d="M 125.359375 125.792969 L 110.328125 113.660156 "/>
<path style="fill:none;stroke-width:1.2;stroke-linecap:butt;stroke-linejoin:miter;stroke:rgb(0%,0%,0%);stroke-opacity:1;stroke-miterlimit:10;" d="M 110.328125 113.660156 L 92.308594 120.613281 "/>
<path style="fill:none;stroke-width:1.2;stroke-linecap:butt;stroke-linejoin:miter;stroke:rgb(0%,0%,0%);stroke-opacity:1;stroke-miterlimit:10;" d="M 110.164062 118.597656 L 95.746094 124.15625 "/>
<path style="fill:none;stroke-width:1.2;stroke-linecap:butt;stroke-linejoin:miter;stroke:rgb(0%,0%,0%);stroke-opacity:1;stroke-miterlimit:10;" d="M 92.308594 120.613281 L 89.316406 139.695312 "/>
<path style="fill:none;stroke-width:1.2;stroke-linecap:butt;stroke-linejoin:miter;stroke:rgb(0%,0%,0%);stroke-opacity:1;stroke-miterlimit:10;" d="M 89.316406 139.695312 L 104.347656 151.828125 "/>
<path style="fill:none;stroke-width:1.2;stroke-linecap:butt;stroke-linejoin:miter;stroke:rgb(0%,0%,0%);stroke-opacity:1;stroke-miterlimit:10;" d="M 93.675781 137.371094 L 105.699219 147.078125 "/>
<path style="fill:none;stroke-width:1.2;stroke-linecap:butt;stroke-linejoin:miter;stroke:rgb(0%,0%,0%);stroke-opacity:1;stroke-miterlimit:10;" d="M 89.316406 139.695312 L 71.292969 146.644531 "/>
<path style="fill:none;stroke-width:1.2;stroke-linecap:butt;stroke-linejoin:miter;stroke:rgb(0%,0%,0%);stroke-opacity:1;stroke-miterlimit:10;" d="M 71.292969 146.644531 L 56.261719 134.511719 "/>
<path style="fill:none;stroke-width:1.2;stroke-linecap:butt;stroke-linejoin:miter;stroke:rgb(0%,0%,0%);stroke-opacity:1;stroke-miterlimit:10;" d="M 66.9375 148.96875 L 54.910156 139.261719 "/>
<path style="fill:none;stroke-width:1.2;stroke-linecap:butt;stroke-linejoin:miter;stroke:rgb(0%,0%,0%);stroke-opacity:1;stroke-miterlimit:10;" d="M 68.304688 165.726562 L 71.292969 146.644531 "/>
<path style="fill:none;stroke-width:1.2;stroke-linecap:butt;stroke-linejoin:miter;stroke:rgb(0%,0%,0%);stroke-opacity:1;stroke-miterlimit:10;" d="M 56.261719 134.511719 L 38.242188 141.464844 "/>
<path style="fill:none;stroke-width:1.2;stroke-linecap:butt;stroke-linejoin:miter;stroke:rgb(0%,0%,0%);stroke-opacity:1;stroke-miterlimit:10;" d="M 38.242188 141.464844 L 35.25 160.546875 "/>
<path style="fill:none;stroke-width:1.2;stroke-linecap:butt;stroke-linejoin:miter;stroke:rgb(0%,0%,0%);stroke-opacity:1;stroke-miterlimit:10;" d="M 42.433594 144.074219 L 40.039062 159.34375 "/>
<path style="fill:none;stroke-width:1.2;stroke-linecap:butt;stroke-linejoin:miter;stroke:rgb(0%,0%,0%);stroke-opacity:1;stroke-miterlimit:10;" d="M 35.25 160.546875 L 50.28125 172.679688 "/>
<path style="fill:none;stroke-width:1.2;stroke-linecap:butt;stroke-linejoin:miter;stroke:rgb(0%,0%,0%);stroke-opacity:1;stroke-miterlimit:10;" d="M 50.28125 172.679688 L 68.304688 165.726562 "/>
<path style="fill:none;stroke-width:1.2;stroke-linecap:butt;stroke-linejoin:miter;stroke:rgb(0%,0%,0%);stroke-opacity:1;stroke-miterlimit:10;" d="M 50.449219 167.742188 L 64.863281 162.183594 "/>
<path style="fill:none;stroke-width:1.2;stroke-linecap:butt;stroke-linejoin:miter;stroke:rgb(0%,0%,0%);stroke-opacity:1;stroke-miterlimit:10;" d="M 177.089844 151.945312 L 186.734375 152.4375 "/>
<path style="fill:none;stroke-width:1.2;stroke-linecap:butt;stroke-linejoin:miter;stroke:rgb(0%,0%,100%);stroke-opacity:1;stroke-miterlimit:10;" d="M 186.734375 152.4375 L 196.382812 152.925781 "/>
<path style="fill:none;stroke-width:1.2;stroke-linecap:butt;stroke-linejoin:miter;stroke:rgb(0%,0%,100%);stroke-opacity:1;stroke-miterlimit:10;" d="M 196.382812 152.925781 L 200.78125 161.523438 "/>
<path style="fill:none;stroke-width:1.2;stroke-linecap:butt;stroke-linejoin:miter;stroke:rgb(0%,0%,0%);stroke-opacity:1;stroke-miterlimit:10;" d="M 200.78125 161.523438 L 205.179688 170.121094 "/>
<path style="fill:none;stroke-width:1.2;stroke-linecap:butt;stroke-linejoin:miter;stroke:rgb(0%,0%,100%);stroke-opacity:1;stroke-miterlimit:10;" d="M 196.382812 152.925781 L 201.628906 144.816406 "/>
<path style="fill:none;stroke-width:1.2;stroke-linecap:butt;stroke-linejoin:miter;stroke:rgb(0%,0%,0%);stroke-opacity:1;stroke-miterlimit:10;" d="M 201.628906 144.816406 L 206.875 136.710938 "/>
<path style=" stroke:none;fill-rule:nonzero;fill:rgb(100%,100%,100%);fill-opacity:1;" d="M 193.382812 147.425781 L 200.382812 147.425781 L 200.382812 158.425781 L 193.382812 158.425781 Z M 193.382812 147.425781 "/>
<g style="fill:rgb(0%,0%,100%);fill-opacity:1;">
  <use xlink:href="#glyph0-1" x="193.382812" y="156.088867"/>
</g>
<path style="fill:none;stroke-width:1.2;stroke-linecap:butt;stroke-linejoin:miter;stroke:rgb(0%,0%,0%);stroke-opacity:1;stroke-miterlimit:10;" d="M 208.898438 135.675781 L 204.5 127.078125 "/>
<path style="fill:none;stroke-width:1.2;stroke-linecap:butt;stroke-linejoin:miter;stroke:rgb(100%,0%,0%);stroke-opacity:1;stroke-miterlimit:10;" d="M 204.5 127.078125 L 200.101562 118.476562 "/>
<path style="fill:none;stroke-width:1.2;stroke-linecap:butt;stroke-linejoin:miter;stroke:rgb(0%,0%,0%);stroke-opacity:1;stroke-miterlimit:10;" d="M 204.851562 137.746094 L 200.453125 129.144531 "/>
<path style="fill:none;stroke-width:1.2;stroke-linecap:butt;stroke-linejoin:miter;stroke:rgb(100%,0%,0%);stroke-opacity:1;stroke-miterlimit:10;" d="M 200.453125 129.144531 L 196.054688 120.546875 "/>
<path style="fill:none;stroke-width:1.2;stroke-linecap:butt;stroke-linejoin:miter;stroke:rgb(0%,0%,0%);stroke-opacity:1;stroke-miterlimit:10;" d="M 206.875 136.710938 L 226.167969 137.691406 "/>
<path style=" stroke:none;fill-rule:nonzero;fill:rgb(100%,100%,100%);fill-opacity:1;" d="M 190.078125 114.011719 L 198.078125 114.011719 L 198.078125 125.011719 L 190.078125 125.011719 Z M 190.078125 114.011719 "/>
<g style="fill:rgb(100%,0%,0%);fill-opacity:1;">
  <use xlink:href="#glyph0-2" x="190.078125" y="122.674805"/>
</g>
<path style="fill:none;stroke-width:1.2;stroke-linecap:butt;stroke-linejoin:miter;stroke:rgb(0%,0%,0%);stroke-opacity:1;stroke-miterlimit:10;" d="M 226.167969 137.691406 L 234.964844 154.886719 "/>
<path style="fill:none;stroke-width:1.2;stroke-linecap:butt;stroke-linejoin:miter;stroke:rgb(0%,0%,0%);stroke-opacity:1;stroke-miterlimit:10;" d="M 231.09375 137.339844 L 238.128906 151.097656 "/>
<path style="fill:none;stroke-width:1.2;stroke-linecap:butt;stroke-linejoin:miter;stroke:rgb(0%,0%,0%);stroke-opacity:1;stroke-miterlimit:10;" d="M 236.664062 121.472656 L 226.167969 137.691406 "/>
<path style="fill:none;stroke-width:1.2;stroke-linecap:butt;stroke-linejoin:miter;stroke:rgb(0%,0%,0%);stroke-opacity:1;stroke-miterlimit:10;" d="M 234.964844 154.886719 L 254.253906 155.867188 "/>
<path style="fill:none;stroke-width:1.2;stroke-linecap:butt;stroke-linejoin:miter;stroke:rgb(0%,0%,0%);stroke-opacity:1;stroke-miterlimit:10;" d="M 254.253906 155.867188 L 264.75 139.652344 "/>
<path style="fill:none;stroke-width:1.2;stroke-linecap:butt;stroke-linejoin:miter;stroke:rgb(0%,0%,0%);stroke-opacity:1;stroke-miterlimit:10;" d="M 251.488281 151.777344 L 259.886719 138.804688 "/>
<path style="fill:none;stroke-width:1.2;stroke-linecap:butt;stroke-linejoin:miter;stroke:rgb(0%,0%,0%);stroke-opacity:1;stroke-miterlimit:10;" d="M 254.253906 155.867188 L 258.652344 164.464844 "/>
<path style="fill:none;stroke-width:1.2;stroke-linecap:butt;stroke-linejoin:miter;stroke:rgb(20%,80%,80%);stroke-opacity:1;stroke-miterlimit:10;" d="M 258.652344 164.464844 L 263.050781 173.0625 "/>
<path style="fill:none;stroke-width:1.2;stroke-linecap:butt;stroke-linejoin:miter;stroke:rgb(0%,0%,0%);stroke-opacity:1;stroke-miterlimit:10;" d="M 264.75 139.652344 L 255.953125 122.453125 "/>
<path style="fill:none;stroke-width:1.2;stroke-linecap:butt;stroke-linejoin:miter;stroke:rgb(0%,0%,0%);stroke-opacity:1;stroke-miterlimit:10;" d="M 255.953125 122.453125 L 236.664062 121.472656 "/>
<path style="fill:none;stroke-width:1.2;stroke-linecap:butt;stroke-linejoin:miter;stroke:rgb(0%,0%,0%);stroke-opacity:1;stroke-miterlimit:10;" d="M 253.792969 126.894531 L 238.359375 126.109375 "/>
<path style=" stroke:none;fill-rule:nonzero;fill:rgb(100%,100%,100%);fill-opacity:1;" d="M 260.050781 167.5625 L 266.050781 167.5625 L 266.050781 178.5625 L 260.050781 178.5625 Z M 260.050781 167.5625 "/>
<g style="fill:rgb(20%,80%,80%);fill-opacity:1;">
  <use xlink:href="#glyph0-3" x="260.050781" y="176.225586"/>
</g>
</g>
</svg>

<svg xmlns="http://www.w3.org/2000/svg" xmlns:xlink="http://www.w3.org/1999/xlink" width="300pt" height="300pt" viewBox="0 0 300 300"><defs><symbol overflow="visible"><path d="M.453 1.594v-7.938h4.5v7.938zm.5-.5h3.5v-6.938h-3.5zm0 0"/></symbol><symbol overflow="visible" id="a"><path d="M.89-6.563H2.08l2.906 5.485v-5.484h.86V0H4.656L1.75-5.484V0H.89zm0 0"/></symbol><symbol overflow="visible" id="b"><path d="M3.547-5.953c-.65 0-1.164.242-1.547.72-.375.48-.563 1.13-.563 1.952 0 .835.188 1.49.563 1.967.383.48.898.72 1.547.72.644 0 1.156-.24 1.53-.72.376-.476.564-1.132.564-1.968 0-.822-.187-1.474-.562-1.954-.375-.477-.887-.72-1.53-.72zm0-.734c.914 0 1.648.312 2.203.937.55.617.828 1.438.828 2.47 0 1.042-.277 1.87-.828 2.483-.555.617-1.29.922-2.203.922-.93 0-1.668-.305-2.22-.922C.774-1.41.5-2.237.5-3.28c0-1.033.273-1.853.828-2.47.55-.625 1.29-.938 2.22-.938zm0 0"/></symbol><symbol overflow="visible" id="c"><path d="M.89-6.563h3.766v.75h-2.89v1.938h2.61v.734h-2.61V0H.89zm0 0"/></symbol></defs><g><path fill="#fff" d="M0 0h300v300H0z"/><path d="M194.684 186.34l-19.293-.98M205.18 170.12l-10.496 16.22" stroke-width="1.2" stroke="#000" stroke-miterlimit="10" fill="none"/><path d="M166.598 168.164m.88 2.867l.928-.475m-.047 3.343l1.855-.95m-.977 3.818l2.785-1.426m-1.902 4.293l3.716-1.9m-2.832 4.767l4.64-2.375m-3.76 5.242l5.57-2.847m-5.095 4.39l6.066-3.1" stroke="#000" stroke-miterlimit="10" fill="none"/><path d="M166.598 168.164l-12.133 15.027M166.598 168.164l10.492-16.22M156.05 151.98l10.548 16.184M154.465 183.19l-18.047-6.89M136.418 176.3l.492-9.648" stroke-width="1.2" stroke="#000" stroke-miterlimit="10" fill="none"/><path d="M136.91 166.652l.488-9.644M137.398 157.008l9.33-2.516" stroke-width="1.2" stroke="#00f" stroke-miterlimit="10" fill="none"/><path d="M146.727 154.492l9.324-2.512" stroke-width="1.2" stroke="#000" stroke-miterlimit="10" fill="none"/><path d="M137.398 157.008l-7.515-6.067" stroke-width="1.2" stroke="#00f" stroke-miterlimit="10" fill="none"/><path d="M129.883 150.94l-7.512-6.065" stroke-width="1.2" stroke="#000" stroke-miterlimit="10" fill="none"/><path d="M134.398 151.508h7v11h-7zm0 0" fill="#fff"/><use xlink:href="#a" x="134.398" y="160.171" fill="#00f"/><path d="M122.37 144.875l2.99-19.082M118.18 142.262l2.39-15.266M104.348 151.828l18.023-6.953M125.36 125.793l-15.032-12.133M110.328 113.66l-18.02 6.953M110.164 118.598l-14.418 5.558M92.31 120.613l-2.994 19.082M89.316 139.695l15.032 12.133M93.676 137.37l12.023 9.708M89.316 139.695l-18.023 6.95M71.293 146.645l-15.03-12.133M66.938 148.97L54.91 139.26M68.305 165.727l2.988-19.082M56.262 134.512l-18.02 6.953M38.242 141.465l-2.992 19.082M42.434 144.074l-2.395 15.27M35.25 160.547l15.03 12.133M50.28 172.68l18.025-6.953M50.45 167.742l14.413-5.558M177.09 151.945l9.644.493" stroke-width="1.2" stroke="#000" stroke-miterlimit="10" fill="none"/><path d="M186.734 152.438l9.65.488M196.383 152.926l4.398 8.597" stroke-width="1.2" stroke="#00f" stroke-miterlimit="10" fill="none"/><path d="M200.78 161.523l4.4 8.598" stroke-width="1.2" stroke="#000" stroke-miterlimit="10" fill="none"/><path d="M196.383 152.926l5.246-8.11" stroke-width="1.2" stroke="#00f" stroke-miterlimit="10" fill="none"/><path d="M201.63 144.816l5.245-8.105" stroke-width="1.2" stroke="#000" stroke-miterlimit="10" fill="none"/><path d="M193.383 147.426h7v11h-7zm0 0" fill="#fff"/><use xlink:href="#a" x="193.383" y="156.089" fill="#00f"/><path d="M208.898 135.676l-4.398-8.598" stroke-width="1.2" stroke="#000" stroke-miterlimit="10" fill="none"/><path d="M204.5 127.078l-4.398-8.6" stroke-width="1.2" stroke="#f00" stroke-miterlimit="10" fill="none"/><path d="M204.852 137.746l-4.4-8.6" stroke-width="1.2" stroke="#000" stroke-miterlimit="10" fill="none"/><path d="M200.453 129.145l-4.398-8.598" stroke-width="1.2" stroke="#f00" stroke-miterlimit="10" fill="none"/><path d="M206.875 136.71l19.293.98" stroke-width="1.2" stroke="#000" stroke-miterlimit="10" fill="none"/><path d="M190.078 114.012h8v11h-8zm0 0" fill="#fff"/><use xlink:href="#b" x="190.078" y="122.675" fill="#f00"/><path d="M226.168 137.69l8.797 17.197M231.094 137.34l7.035 13.758M236.664 121.473l-10.496 16.218M234.965 154.887l19.29.98M254.254 155.867l10.496-16.215M251.488 151.777l8.4-12.972M254.254 155.867l4.398 8.598" stroke-width="1.2" stroke="#000" stroke-miterlimit="10" fill="none"/><path d="M258.652 164.465l4.4 8.597" stroke-width="1.2" stroke="#3cc" stroke-miterlimit="10" fill="none"/><path d="M264.75 139.652l-8.797-17.2M255.953 122.453l-19.29-.98M253.793 126.895l-15.434-.786" stroke-width="1.2" stroke="#000" stroke-miterlimit="10" fill="none"/><path d="M260.05 167.563h6v11h-6zm0 0" fill="#fff"/><use xlink:href="#c" x="260.051" y="176.226" fill="#3cc"/></g></svg>
